assets/images/athen_repuloter.xmp
<?xpacket begin='﻿' id='W5M0MpCehiHzreSzNTczkc9d'?>
<x:xmpmeta xmlns:x='adobe:ns:meta/' x:xmptk='Image::ExifTool 13.45'>
<rdf:RDF xmlns:rdf='http://www.w3.org/1999/02/22-rdf-syntax-ns#'>

 <rdf:Description rdf:about=''
  xmlns:aux='http://ns.adobe.com/exif/1.0/aux/'>
  <aux:LateralChromaticAberrationCorrectionAlreadyApplied>True</aux:LateralChromaticAberrationCorrectionAlreadyApplied>
 </rdf:Description>

 <rdf:Description rdf:about=''
  xmlns:crs='http://ns.adobe.com/camera-raw-settings/1.0/'>
  <crs:AlreadyApplied>True</crs:AlreadyApplied>
  <crs:AutoLateralCA>1</crs:AutoLateralCA>
  <crs:AutoToneDigest>175B54BFA7265E0DB3E31A771B12CFE7</crs:AutoToneDigest>
  <crs:AutoToneDigestNoSat>63B86E54AD26BCCC66248D0583E0BA15</crs:AutoToneDigestNoSat>
  <crs:Blacks2012>-26</crs:Blacks2012>
  <crs:BlueHue>0</crs:BlueHue>
  <crs:BlueSaturation>0</crs:BlueSaturation>
  <crs:Brightness>+50</crs:Brightness>
  <crs:CameraProfile>Embedded</crs:CameraProfile>
  <crs:CameraProfileDigest>54650A341B5B5CCAE8442D0B43A92BCE</crs:CameraProfileDigest>
  <crs:Clarity2012>0</crs:Clarity2012>
  <crs:ColorGradeBlending>50</crs:ColorGradeBlending>
  <crs:ColorGradeGlobalHue>0</crs:ColorGradeGlobalHue>
  <crs:ColorGradeGlobalLum>0</crs:ColorGradeGlobalLum>
  <crs:ColorGradeGlobalSat>0</crs:ColorGradeGlobalSat>
  <crs:ColorGradeHighlightLum>0</crs:ColorGradeHighlightLum>
  <crs:ColorGradeMidtoneHue>0</crs:ColorGradeMidtoneHue>
  <crs:ColorGradeMidtoneLum>0</crs:ColorGradeMidtoneLum>
  <crs:ColorGradeMidtoneSat>0</crs:ColorGradeMidtoneSat>
  <crs:ColorGradeShadowLum>0</crs:ColorGradeShadowLum>
  <crs:ColorNoiseReduction>0</crs:ColorNoiseReduction>
  <crs:Contrast>+25</crs:Contrast>
  <crs:Contrast2012>+26</crs:Contrast2012>
  <crs:ConvertToGrayscale>False</crs:ConvertToGrayscale>
  <crs:CropAngle>0.87</crs:CropAngle>
  <crs:CropBottom>1</crs:CropBottom>
  <crs:CropConstrainToWarp>0</crs:CropConstrainToWarp>
  <crs:CropLeft>0.017902</crs:CropLeft>
  <crs:CropRight>0.988795</crs:CropRight>
  <crs:CropTop>0.045327</crs:CropTop>
  <crs:DefringeGreenAmount>0</crs:DefringeGreenAmount>
  <crs:DefringeGreenHueHi>60</crs:DefringeGreenHueHi>
  <crs:DefringeGreenHueLo>40</crs:DefringeGreenHueLo>
  <crs:DefringePurpleAmount>0</crs:DefringePurpleAmount>
  <crs:DefringePurpleHueHi>70</crs:DefringePurpleHueHi>
  <crs:DefringePurpleHueLo>30</crs:DefringePurpleHueLo>
  <crs:Dehaze>0</crs:Dehaze>
  <crs:Exposure2012>+0.49</crs:Exposure2012>
  <crs:GrainAmount>0</crs:GrainAmount>
  <crs:GreenHue>0</crs:GreenHue>
  <crs:GreenSaturation>0</crs:GreenSaturation>
  <crs:HDREditMode>0</crs:HDREditMode>
  <crs:HasCrop>True</crs:HasCrop>
  <crs:HasSettings>True</crs:HasSettings>
  <crs:Highlights2012>-25</crs:Highlights2012>
  <crs:HueAdjustmentAqua>0</crs:HueAdjustmentAqua>
  <crs:HueAdjustmentBlue>0</crs:HueAdjustmentBlue>
  <crs:HueAdjustmentGreen>0</crs:HueAdjustmentGreen>
  <crs:HueAdjustmentMagenta>0</crs:HueAdjustmentMagenta>
  <crs:HueAdjustmentOrange>0</crs:HueAdjustmentOrange>
  <crs:HueAdjustmentPurple>0</crs:HueAdjustmentPurple>
  <crs:HueAdjustmentRed>0</crs:HueAdjustmentRed>
  <crs:HueAdjustmentYellow>0</crs:HueAdjustmentYellow>
  <crs:IncrementalTemperature>0</crs:IncrementalTemperature>
  <crs:IncrementalTint>0</crs:IncrementalTint>
  <crs:LensManualDistortionAmount>0</crs:LensManualDistortionAmount>
  <crs:LensProfileEnable>1</crs:LensProfileEnable>
  <crs:LensProfileSetup>LensDefaults</crs:LensProfileSetup>
  <crs:LuminanceAdjustmentAqua>0</crs:LuminanceAdjustmentAqua>
  <crs:LuminanceAdjustmentBlue>0</crs:LuminanceAdjustmentBlue>
  <crs:LuminanceAdjustmentGreen>0</crs:LuminanceAdjustmentGreen>
  <crs:LuminanceAdjustmentMagenta>0</crs:LuminanceAdjustmentMagenta>
  <crs:LuminanceAdjustmentOrange>0</crs:LuminanceAdjustmentOrange>
  <crs:LuminanceAdjustmentPurple>0</crs:LuminanceAdjustmentPurple>
  <crs:LuminanceAdjustmentRed>0</crs:LuminanceAdjustmentRed>
  <crs:LuminanceAdjustmentYellow>0</crs:LuminanceAdjustmentYellow>
  <crs:LuminanceSmoothing>0</crs:LuminanceSmoothing>
  <crs:OverrideLookVignette>False</crs:OverrideLookVignette>
  <crs:ParametricDarks>0</crs:ParametricDarks>
  <crs:ParametricHighlightSplit>75</crs:ParametricHighlightSplit>
  <crs:ParametricHighlights>0</crs:ParametricHighlights>
  <crs:ParametricLights>0</crs:ParametricLights>
  <crs:ParametricMidtoneSplit>50</crs:ParametricMidtoneSplit>
  <crs:ParametricShadowSplit>25</crs:ParametricShadowSplit>
  <crs:ParametricShadows>0</crs:ParametricShadows>
  <crs:PerspectiveAspect>0</crs:PerspectiveAspect>
  <crs:PerspectiveHorizontal>0</crs:PerspectiveHorizontal>
  <crs:PerspectiveRotate>0.0</crs:PerspectiveRotate>
  <crs:PerspectiveScale>100</crs:PerspectiveScale>
  <crs:PerspectiveUpright>0</crs:PerspectiveUpright>
  <crs:PerspectiveVertical>0</crs:PerspectiveVertical>
  <crs:PerspectiveX>0.00</crs:PerspectiveX>
  <crs:PerspectiveY>0.00</crs:PerspectiveY>
  <crs:PointColors>
   <rdf:Seq>
    <rdf:li>-1.000000, -1.000000, -1.000000, -1.000000, -1.000000, -1.000000, -1.000000, -1.000000, -1.000000, -1.000000, -1.000000, -1.000000, -1.000000, -1.000000, -1.000000, -1.000000, -1.000000, -1.000000, -1.000000</rdf:li>
   </rdf:Seq>
  </crs:PointColors>
  <crs:PostCropVignetteAmount>0</crs:PostCropVignetteAmount>
  <crs:ProcessVersion>15.4</crs:ProcessVersion>
  <crs:RawFileName>img_20180831_132636.jpg</crs:RawFileName>
  <crs:RedHue>0</crs:RedHue>
  <crs:RedSaturation>0</crs:RedSaturation>
  <crs:Saturation>-1</crs:Saturation>
  <crs:SaturationAdjustmentAqua>0</crs:SaturationAdjustmentAqua>
  <crs:SaturationAdjustmentBlue>0</crs:SaturationAdjustmentBlue>
  <crs:SaturationAdjustmentGreen>0</crs:SaturationAdjustmentGreen>
  <crs:SaturationAdjustmentMagenta>0</crs:SaturationAdjustmentMagenta>
  <crs:SaturationAdjustmentOrange>0</crs:SaturationAdjustmentOrange>
  <crs:SaturationAdjustmentPurple>0</crs:SaturationAdjustmentPurple>
  <crs:SaturationAdjustmentRed>0</crs:SaturationAdjustmentRed>
  <crs:SaturationAdjustmentYellow>0</crs:SaturationAdjustmentYellow>
  <crs:ShadowTint>0</crs:ShadowTint>
  <crs:Shadows>5</crs:Shadows>
  <crs:Shadows2012>+43</crs:Shadows2012>
  <crs:Sharpness>0</crs:Sharpness>
  <crs:SplitToningBalance>0</crs:SplitToningBalance>
  <crs:SplitToningHighlightHue>0</crs:SplitToningHighlightHue>
  <crs:SplitToningHighlightSaturation>0</crs:SplitToningHighlightSaturation>
  <crs:SplitToningShadowHue>0</crs:SplitToningShadowHue>
  <crs:SplitToningShadowSaturation>0</crs:SplitToningShadowSaturation>
  <crs:Texture>0</crs:Texture>
  <crs:ToneCurveName2012>Linear</crs:ToneCurveName2012>
  <crs:ToneCurvePV2012>
   <rdf:Seq>
    <rdf:li>0, 0</rdf:li>
    <rdf:li>255, 255</rdf:li>
   </rdf:Seq>
  </crs:ToneCurvePV2012>
  <crs:ToneCurvePV2012Blue>
   <rdf:Seq>
    <rdf:li>0, 0</rdf:li>
    <rdf:li>255, 255</rdf:li>
   </rdf:Seq>
  </crs:ToneCurvePV2012Blue>
  <crs:ToneCurvePV2012Green>
   <rdf:Seq>
    <rdf:li>0, 0</rdf:li>
    <rdf:li>255, 255</rdf:li>
   </rdf:Seq>
  </crs:ToneCurvePV2012Green>
  <crs:ToneCurvePV2012Red>
   <rdf:Seq>
    <rdf:li>0, 0</rdf:li>
    <rdf:li>255, 255</rdf:li>
   </rdf:Seq>
  </crs:ToneCurvePV2012Red>
  <crs:UprightCenterMode>0</crs:UprightCenterMode>
  <crs:UprightCenterNormX>0.500469</crs:UprightCenterNormX>
  <crs:UprightCenterNormY>0.570683</crs:UprightCenterNormY>
  <crs:UprightDependentDigest>F7173540FD9FB419BD947A976070F4D2</crs:UprightDependentDigest>
  <crs:UprightFocalLength35mm>24.6692</crs:UprightFocalLength35mm>
  <crs:UprightFocalMode>0</crs:UprightFocalMode>
  <crs:UprightPreview>False</crs:UprightPreview>
  <crs:UprightTransformCount>6</crs:UprightTransformCount>
  <crs:UprightTransform_0>1.000000000,0.000000000,0.000000000,0.000000000,1.000000000,0.000000000,0.000000000,0.000000000,1.000000000</crs:UprightTransform_0>
  <crs:UprightTransform_1>1.043604681,-0.069683002,0.004272041,0.058429992,0.968781567,-0.059395122,0.047197722,-0.095692476,1.000000000</crs:UprightTransform_1>
  <crs:UprightTransform_2>0.897771827,-0.068899882,-0.007794190,-0.007345857,0.900162351,-0.002713174,-0.120816016,-0.092862221,1.000000000</crs:UprightTransform_2>
  <crs:UprightTransform_3>1.036687084,-0.021871537,-0.007407773,0.038882733,1.036687084,-0.037784908,0.000000000,0.000000000,1.000000000</crs:UprightTransform_3>
  <crs:UprightTransform_4>0.997583863,-0.077865624,0.004109276,0.049498809,0.947838537,-0.050073039,-0.000088929,-0.102234634,1.000000000</crs:UprightTransform_4>
  <crs:UprightTransform_5>1.000000000,0.000000000,0.000000000,0.000000000,1.000000000,0.000000000,0.000000000,0.000000000,1.000000000</crs:UprightTransform_5>
  <crs:UprightVersion>151388160</crs:UprightVersion>
  <crs:Version>17.2</crs:Version>
  <crs:Vibrance>+10</crs:Vibrance>
  <crs:VignetteAmount>0</crs:VignetteAmount>
  <crs:WhiteBalance>Auto</crs:WhiteBalance>
  <crs:Whites2012>-10</crs:Whites2012>
 </rdf:Description>

 <rdf:Description rdf:about=''
  xmlns:dc='http://purl.org/dc/elements/1.1/'>
  <dc:description>
   <rdf:Alt>
    <rdf:li xml:lang='x-default'>Erre a napra már csak a hazaút maradt. Athéből - átrepülve Budapest felett - Bécsbe mentünk és onnét egy másik járattal jöttünk haza.</rdf:li>
   </rdf:Alt>
  </dc:description>
  <dc:format>image/jpeg</dc:format>
  <dc:rights>
   <rdf:Alt>
    <rdf:li xml:lang='x-default'>Havassy András</rdf:li>
   </rdf:Alt>
  </dc:rights>
  <dc:subject>
   <rdf:Bag>
    <rdf:li>Athén</rdf:li>
    <rdf:li>Görögország</rdf:li>
    <rdf:li>hely</rdf:li>
    <rdf:li>ország</rdf:li>
    <rdf:li>repülőtér</rdf:li>
    <rdf:li>település</rdf:li>
    <rdf:li>téma</rdf:li>
    <rdf:li>épített</rdf:li>
   </rdf:Bag>
  </dc:subject>
  <dc:title>
   <rdf:Alt>
    <rdf:li xml:lang='x-default'>Az athéni Elefthériosz Venizélosz nemzetközi repülőtér</rdf:li>
   </rdf:Alt>
  </dc:title>
 </rdf:Description>

 <rdf:Description rdf:about=''
  xmlns:exif='http://ns.adobe.com/exif/1.0/'>
  <exif:ApertureValue>8074/3549</exif:ApertureValue>
  <exif:BrightnessValue>0/1</exif:BrightnessValue>
  <exif:ColorSpace>1</exif:ColorSpace>
  <exif:Contrast>0</exif:Contrast>
  <exif:CustomRendered>1</exif:CustomRendered>
  <exif:DateTimeOriginal>2018-08-31T13:26:37</exif:DateTimeOriginal>
  <exif:DigitalZoomRatio>1/1</exif:DigitalZoomRatio>
  <exif:ExifVersion>0231</exif:ExifVersion>
  <exif:ExposureBiasValue>0/1</exif:ExposureBiasValue>
  <exif:ExposureMode>0</exif:ExposureMode>
  <exif:ExposureProgram>2</exif:ExposureProgram>
  <exif:ExposureTime>1/230</exif:ExposureTime>
  <exif:FNumber>11/5</exif:FNumber>
  <exif:FileSource>3</exif:FileSource>
  <exif:Flash rdf:parseType='Resource'>
   <exif:Fired>False</exif:Fired>
   <exif:Function>False</exif:Function>
   <exif:Mode>0</exif:Mode>
   <exif:RedEyeMode>False</exif:RedEyeMode>
   <exif:Return>0</exif:Return>
  </exif:Flash>
  <exif:FocalLength>9/2</exif:FocalLength>
  <exif:FocalLengthIn35mmFilm>27</exif:FocalLengthIn35mmFilm>
  <exif:GPSAltitude>1233/10</exif:GPSAltitude>
  <exif:GPSAltitudeRef>0</exif:GPSAltitudeRef>
  <exif:GPSLatitude>37,55.881958N</exif:GPSLatitude>
  <exif:GPSLongitude>23,56.5418243E</exif:GPSLongitude>
  <exif:GPSTimeStamp>2018-08-31T10:26:36Z</exif:GPSTimeStamp>
  <exif:GPSVersionID>2.2.0.0</exif:GPSVersionID>
  <exif:GainControl>0</exif:GainControl>
  <exif:ISOSpeedRatings>
   <rdf:Seq>
    <rdf:li>50</rdf:li>
   </rdf:Seq>
  </exif:ISOSpeedRatings>
  <exif:LightSource>1</exif:LightSource>
  <exif:MeteringMode>5</exif:MeteringMode>
  <exif:Saturation>0</exif:Saturation>
  <exif:SceneCaptureType>0</exif:SceneCaptureType>
  <exif:SceneType>1</exif:SceneType>
  <exif:SensingMethod>2</exif:SensingMethod>
  <exif:Sharpness>0</exif:Sharpness>
  <exif:ShutterSpeedValue>38184/4867</exif:ShutterSpeedValue>
  <exif:SubjectDistanceRange>0</exif:SubjectDistanceRange>
  <exif:WhiteBalance>0</exif:WhiteBalance>
 </rdf:Description>

 <rdf:Description rdf:about=''
  xmlns:lr='http://ns.adobe.com/lightroom/1.0/'>
  <lr:weightedFlatSubject>
   <rdf:Bag>
    <rdf:li>Görögország</rdf:li>
    <rdf:li>ország</rdf:li>
    <rdf:li>hely</rdf:li>
    <rdf:li>Athén</rdf:li>
    <rdf:li>település</rdf:li>
    <rdf:li>repülőtér</rdf:li>
    <rdf:li>épített</rdf:li>
    <rdf:li>téma</rdf:li>
   </rdf:Bag>
  </lr:weightedFlatSubject>
 </rdf:Description>

 <rdf:Description rdf:about=''
  xmlns:pdf='http://ns.adobe.com/pdf/1.3/'>
  <pdf:Keywords>Athén, Görögország, hely, ország, repülőtér, település, téma, épített</pdf:Keywords>
 </rdf:Description>

 <rdf:Description rdf:about=''
  xmlns:photoshop='http://ns.adobe.com/photoshop/1.0/'>
  <photoshop:DateCreated>2018-08-31T13:26:37.786304</photoshop:DateCreated>
 </rdf:Description>

 <rdf:Description rdf:about=''
  xmlns:tiff='http://ns.adobe.com/tiff/1.0/'>
  <tiff:BitsPerSample>
   <rdf:Seq>
    <rdf:li>8</rdf:li>
   </rdf:Seq>
  </tiff:BitsPerSample>
  <tiff:Compression>6</tiff:Compression>
  <tiff:Copyright>
   <rdf:Alt>
    <rdf:li xml:lang='x-default'>Havassy András</rdf:li>
   </rdf:Alt>
  </tiff:Copyright>
  <tiff:ImageDescription>
   <rdf:Alt>
    <rdf:li xml:lang='x-default'>Erre a napra már csak a hazaút maradt. Athéből - átrepülve Budapest felett - Bécsbe mentünk és onnét egy másik járattal jöttünk haza.</rdf:li>
   </rdf:Alt>
  </tiff:ImageDescription>
  <tiff:ImageLength>571</tiff:ImageLength>
  <tiff:ImageWidth>800</tiff:ImageWidth>
  <tiff:Make>HUAWEI</tiff:Make>
  <tiff:Model>EVA-L09</tiff:Model>
  <tiff:ResolutionUnit>2</tiff:ResolutionUnit>
  <tiff:Software>Adobe Photoshop Lightroom Classic 14.2 (Windows)</tiff:Software>
  <tiff:XResolution>240/1</tiff:XResolution>
  <tiff:YCbCrSubSampling>
   <rdf:Seq>
    <rdf:li>1</rdf:li>
    <rdf:li>1</rdf:li>
   </rdf:Seq>
  </tiff:YCbCrSubSampling>
  <tiff:YResolution>240/1</tiff:YResolution>
 </rdf:Description>

 <rdf:Description rdf:about=''
  xmlns:xmp='http://ns.adobe.com/xap/1.0/'>
  <xmp:CreateDate>2018-08-31T13:26:37</xmp:CreateDate>
  <xmp:CreatorTool>Adobe Photoshop Lightroom Classic 14.2 (Windows)</xmp:CreatorTool>
  <xmp:Label>Blue</xmp:Label>
  <xmp:MetadataDate>2026-06-05T21:53:13+02:00</xmp:MetadataDate>
  <xmp:ModifyDate>2026-06-05T21:53:13</xmp:ModifyDate>
 </rdf:Description>

 <rdf:Description rdf:about=''
  xmlns:xmpDM='http://ns.adobe.com/xmp/1.0/DynamicMedia/'>
  <xmpDM:pick>0</xmpDM:pick>
 </rdf:Description>

 <rdf:Description rdf:about=''
  xmlns:stEvt='http://ns.adobe.com/xap/1.0/sType/ResourceEvent#'
  xmlns:stRef='http://ns.adobe.com/xap/1.0/sType/ResourceRef#'
  xmlns:xmpMM='http://ns.adobe.com/xap/1.0/mm/'>
  <xmpMM:DerivedFrom rdf:parseType='Resource'>
   <stRef:documentID>F628426953F035599EECD9C0EC561A7F</stRef:documentID>
   <stRef:originalDocumentID>F628426953F035599EECD9C0EC561A7F</stRef:originalDocumentID>
  </xmpMM:DerivedFrom>
  <xmpMM:DocumentID>xmp.did:4b606d54-39fc-0940-b51f-13d255d8ae1b</xmpMM:DocumentID>
  <xmpMM:History>
   <rdf:Seq>
    <rdf:li rdf:parseType='Resource'>
     <stEvt:action>derived</stEvt:action>
     <stEvt:parameters>saved to new location</stEvt:parameters>
    </rdf:li>
    <rdf:li rdf:parseType='Resource'>
     <stEvt:action>saved</stEvt:action>
     <stEvt:changed>/</stEvt:changed>
     <stEvt:instanceID>xmp.iid:4b606d54-39fc-0940-b51f-13d255d8ae1b</stEvt:instanceID>
     <stEvt:softwareAgent>Adobe Photoshop Lightroom Classic 14.2 (Windows)</stEvt:softwareAgent>
     <stEvt:when>2026-06-05T21:53:13+02:00</stEvt:when>
    </rdf:li>
   </rdf:Seq>
  </xmpMM:History>
  <xmpMM:InstanceID>xmp.iid:4b606d54-39fc-0940-b51f-13d255d8ae1b</xmpMM:InstanceID>
  <xmpMM:OriginalDocumentID>F628426953F035599EECD9C0EC561A7F</xmpMM:OriginalDocumentID>
  <xmpMM:PreservedFileName>img_20180831_132636.jpg</xmpMM:PreservedFileName>
 </rdf:Description>

 <rdf:Description rdf:about=''
  xmlns:xmpRights='http://ns.adobe.com/xap/1.0/rights/'>
  <xmpRights:Marked>True</xmpRights:Marked>
 </rdf:Description>
</rdf:RDF>
</x:xmpmeta>
<?xpacket end='w'?>