assets/images/durmitor_kecske.xmp
<x:xmpmeta xmlns:x="adobe:ns:meta/" x:xmptk="Adobe XMP Core 7.0-c000 1.000000, 0000/00/00-00:00:00        ">
 <rdf:RDF xmlns:rdf="http://www.w3.org/1999/02/22-rdf-syntax-ns#">
  <rdf:Description rdf:about=""
    xmlns:xmp="http://ns.adobe.com/xap/1.0/"
    xmlns:tiff="http://ns.adobe.com/tiff/1.0/"
    xmlns:exif="http://ns.adobe.com/exif/1.0/"
    xmlns:dc="http://purl.org/dc/elements/1.1/"
    xmlns:aux="http://ns.adobe.com/exif/1.0/aux/"
    xmlns:photoshop="http://ns.adobe.com/photoshop/1.0/"
    xmlns:xmpMM="http://ns.adobe.com/xap/1.0/mm/"
    xmlns:stEvt="http://ns.adobe.com/xap/1.0/sType/ResourceEvent#"
    xmlns:crd="http://ns.adobe.com/camera-raw-defaults/1.0/"
    xmlns:xmpRights="http://ns.adobe.com/xap/1.0/rights/"
    xmlns:xmpDM="http://ns.adobe.com/xmp/1.0/DynamicMedia/"
    xmlns:crs="http://ns.adobe.com/camera-raw-settings/1.0/"
    xmlns:lr="http://ns.adobe.com/lightroom/1.0/"
   xmp:ModifyDate="2024-07-25T16:08:59.29"
   xmp:CreateDate="2024-07-25T16:08:59.29"
   xmp:MetadataDate="2026-05-09T22:10:41+02:00"
   tiff:Make="Canon"
   tiff:Model="Canon PowerShot G7 X Mark II"
   tiff:Orientation="1"
   tiff:ImageWidth="5472"
   tiff:ImageLength="3648"
   exif:ExifVersion="0230"
   exif:ExposureTime="1/2000"
   exif:ShutterSpeedValue="10965784/1000000"
   exif:FNumber="8/1"
   exif:ApertureValue="6/1"
   exif:ExposureProgram="3"
   exif:SensitivityType="2"
   exif:RecommendedExposureIndex="250"
   exif:ExposureBiasValue="-1/3"
   exif:MaxApertureValue="95/32"
   exif:MeteringMode="5"
   exif:FocalLength="36800/1000"
   exif:SensingMethod="2"
   exif:FileSource="3"
   exif:CustomRendered="0"
   exif:ExposureMode="1"
   exif:WhiteBalance="1"
   exif:SceneCaptureType="0"
   exif:DigitalZoomRatio="5472/5472"
   exif:FocalPlaneXResolution="135838255/32768"
   exif:FocalPlaneYResolution="135838255/32768"
   exif:FocalPlaneResolutionUnit="3"
   exif:DateTimeOriginal="2024-07-25T16:08:59.29"
   exif:PixelXDimension="5472"
   exif:PixelYDimension="3648"
   exif:GPSLatitude="43,6.352866N"
   exif:GPSLongitude="19,3.018186E"
   exif:GPSVersionID="2.2.0.0"
   dc:format="image/x-canon-cr2"
   aux:SerialNumber="873056001511"
   aux:LensInfo="8800/1000 36800/1000 0/0 0/0"
   aux:Lens="8.8-36.8 mm"
   aux:ImageNumber="0"
   aux:ApproximateFocusDistance="4294967295/1"
   aux:FlashCompensation="0/1"
   aux:Firmware="1.01"
   photoshop:DateCreated="2024-07-25T16:08:59.29"
   photoshop:SidecarForExtension="CR2"
   photoshop:EmbeddedXMPDigest="EB127DA8AB7093AF20433136B4F6595B"
   xmpMM:DocumentID="69EE61BFBD9DB94C86DFE68E0E9D754C"
   xmpMM:PreservedFileName="img_0087.cr2"
   xmpMM:OriginalDocumentID="69EE61BFBD9DB94C86DFE68E0E9D754C"
   xmpMM:InstanceID="xmp.iid:1532e898-3c25-694e-bfc8-72268bede82d"
   crd:CameraProfile="Camera Auto"
   crd:LookName=""
   xmpRights:Marked="True"
   xmpDM:good="true"
   xmpDM:pick="1"
   crs:Version="17.2"
   crs:ProcessVersion="15.4"
   crs:WhiteBalance="Daylight"
   crs:Temperature="5500"
   crs:Tint="+10"
   crs:Exposure2012="+0.78"
   crs:Contrast2012="+20"
   crs:Highlights2012="-50"
   crs:Shadows2012="+59"
   crs:Whites2012="+50"
   crs:Blacks2012="-22"
   crs:Texture="0"
   crs:Clarity2012="0"
   crs:Dehaze="0"
   crs:Vibrance="+15"
   crs:Saturation="0"
   crs:ParametricShadows="0"
   crs:ParametricDarks="0"
   crs:ParametricLights="0"
   crs:ParametricHighlights="0"
   crs:ParametricShadowSplit="25"
   crs:ParametricMidtoneSplit="50"
   crs:ParametricHighlightSplit="75"
   crs:Sharpness="40"
   crs:SharpenRadius="+1.0"
   crs:SharpenDetail="25"
   crs:SharpenEdgeMasking="0"
   crs:LuminanceSmoothing="0"
   crs:ColorNoiseReduction="25"
   crs:ColorNoiseReductionDetail="50"
   crs:ColorNoiseReductionSmoothness="50"
   crs:HueAdjustmentRed="0"
   crs:HueAdjustmentOrange="0"
   crs:HueAdjustmentYellow="0"
   crs:HueAdjustmentGreen="0"
   crs:HueAdjustmentAqua="0"
   crs:HueAdjustmentBlue="0"
   crs:HueAdjustmentPurple="0"
   crs:HueAdjustmentMagenta="0"
   crs:SaturationAdjustmentRed="0"
   crs:SaturationAdjustmentOrange="0"
   crs:SaturationAdjustmentYellow="0"
   crs:SaturationAdjustmentGreen="0"
   crs:SaturationAdjustmentAqua="0"
   crs:SaturationAdjustmentBlue="0"
   crs:SaturationAdjustmentPurple="0"
   crs:SaturationAdjustmentMagenta="0"
   crs:LuminanceAdjustmentRed="0"
   crs:LuminanceAdjustmentOrange="0"
   crs:LuminanceAdjustmentYellow="0"
   crs:LuminanceAdjustmentGreen="0"
   crs:LuminanceAdjustmentAqua="0"
   crs:LuminanceAdjustmentBlue="0"
   crs:LuminanceAdjustmentPurple="0"
   crs:LuminanceAdjustmentMagenta="0"
   crs:SplitToningShadowHue="0"
   crs:SplitToningShadowSaturation="0"
   crs:SplitToningHighlightHue="0"
   crs:SplitToningHighlightSaturation="0"
   crs:SplitToningBalance="0"
   crs:ColorGradeMidtoneHue="0"
   crs:ColorGradeMidtoneSat="0"
   crs:ColorGradeShadowLum="0"
   crs:ColorGradeMidtoneLum="0"
   crs:ColorGradeHighlightLum="0"
   crs:ColorGradeBlending="50"
   crs:ColorGradeGlobalHue="0"
   crs:ColorGradeGlobalSat="0"
   crs:ColorGradeGlobalLum="0"
   crs:AutoLateralCA="1"
   crs:LensProfileEnable="0"
   crs:LensManualDistortionAmount="0"
   crs:VignetteAmount="0"
   crs:DefringePurpleAmount="0"
   crs:DefringePurpleHueLo="30"
   crs:DefringePurpleHueHi="70"
   crs:DefringeGreenAmount="0"
   crs:DefringeGreenHueLo="40"
   crs:DefringeGreenHueHi="60"
   crs:PerspectiveUpright="0"
   crs:PerspectiveVertical="0"
   crs:PerspectiveHorizontal="0"
   crs:PerspectiveRotate="0.0"
   crs:PerspectiveAspect="0"
   crs:PerspectiveScale="100"
   crs:PerspectiveX="0.00"
   crs:PerspectiveY="0.00"
   crs:GrainAmount="0"
   crs:PostCropVignetteAmount="0"
   crs:ShadowTint="0"
   crs:RedHue="0"
   crs:RedSaturation="0"
   crs:GreenHue="0"
   crs:GreenSaturation="0"
   crs:BlueHue="0"
   crs:BlueSaturation="0"
   crs:HDREditMode="0"
   crs:OverrideLookVignette="False"
   crs:ToneCurveName2012="Linear"
   crs:CameraProfile="Adobe Standard"
   crs:CameraProfileDigest="1E4F81470A6232BAF5C2806953239317"
   crs:UprightVersion="151388160"
   crs:UprightCenterMode="0"
   crs:UprightCenterNormX="0.5"
   crs:UprightCenterNormY="0.5"
   crs:UprightFocalMode="0"
   crs:UprightFocalLength35mm="99.8248"
   crs:UprightPreview="False"
   crs:UprightDependentDigest="F7173540FD9FB419BD947A976070F4D2"
   crs:UprightTransformCount="6"
   crs:UprightTransform_0="1.000000000,0.000000000,0.000000000,0.000000000,1.000000000,0.000000000,0.000000000,0.000000000,1.000000000"
   crs:UprightTransform_1="1.000000000,0.000000000,0.000000000,0.000000000,1.000000000,0.000000000,0.000000000,0.000000000,1.000000000"
   crs:UprightTransform_2="1.000000000,0.000000000,0.000000000,0.000000000,1.000000000,0.000000000,0.000000000,0.000000000,1.000000000"
   crs:UprightTransform_3="1.000000000,0.000000000,0.000000000,0.000000000,1.000000000,0.000000000,0.000000000,0.000000000,1.000000000"
   crs:UprightTransform_4="1.000000000,0.000000000,0.000000000,0.000000000,1.000000000,0.000000000,0.000000000,0.000000000,1.000000000"
   crs:UprightTransform_5="1.000000000,0.000000000,0.000000000,0.000000000,1.000000000,0.000000000,0.000000000,0.000000000,1.000000000"
   crs:AutoToneDigest="65A8B98D21433B203C606E0789B77567"
   crs:AutoToneDigestNoSat="BC4745A796DDD157B88381D523F9AF96"
   crs:HasSettings="True"
   crs:CropTop="0"
   crs:CropLeft="0"
   crs:CropBottom="0.842106"
   crs:CropRight="1"
   crs:CropAngle="0"
   crs:CropConstrainToWarp="0"
   crs:HasCrop="True"
   crs:AlreadyApplied="False"
   crs:RawFileName="img_0087.cr2">
   <exif:ISOSpeedRatings>
    <rdf:Seq>
     <rdf:li>250</rdf:li>
    </rdf:Seq>
   </exif:ISOSpeedRatings>
   <exif:Flash
    exif:Fired="False"
    exif:Return="0"
    exif:Mode="2"
    exif:Function="False"
    exif:RedEyeMode="False"/>
   <dc:creator>
    <rdf:Seq>
     <rdf:li>Havassy Andras</rdf:li>
    </rdf:Seq>
   </dc:creator>
   <dc:title>
    <rdf:Alt>
     <rdf:li xml:lang="x-default">Hegyikecske a hegyen</rdf:li>
    </rdf:Alt>
   </dc:title>
   <dc:subject>
    <rdf:Bag>
     <rdf:li>Durmitor</rdf:li>
     <rdf:li>Montenegró</rdf:li>
     <rdf:li>hely</rdf:li>
     <rdf:li>ország</rdf:li>
     <rdf:li>tájnév</rdf:li>
     <rdf:li>téma</rdf:li>
     <rdf:li>állat</rdf:li>
    </rdf:Bag>
   </dc:subject>
   <dc:description>
    <rdf:Alt>
     <rdf:li xml:lang="x-default">Rupicapra rupicapra balcanica. A Bobotov Kukról lefelé jövet hosszasan kísértek minket és egész közel engedtek magukhoz. (Valójában mi kísértük őket...)</rdf:li>
    </rdf:Alt>
   </dc:description>
   <xmpMM:History>
    <rdf:Seq>
     <rdf:li
      stEvt:action="saved"
      stEvt:instanceID="xmp.iid:1532e898-3c25-694e-bfc8-72268bede82d"
      stEvt:when="2026-05-09T22:10:41+02:00"
      stEvt:softwareAgent="Adobe Photoshop Lightroom Classic 14.2 (Windows)"
      stEvt:changed="/metadata"/>
    </rdf:Seq>
   </xmpMM:History>
   <crs:ToneCurvePV2012>
    <rdf:Seq>
     <rdf:li>0, 0</rdf:li>
     <rdf:li>255, 255</rdf:li>
    </rdf:Seq>
   </crs:ToneCurvePV2012>
   <crs:ToneCurvePV2012Red>
    <rdf:Seq>
     <rdf:li>0, 0</rdf:li>
     <rdf:li>255, 255</rdf:li>
    </rdf:Seq>
   </crs:ToneCurvePV2012Red>
   <crs:ToneCurvePV2012Green>
    <rdf:Seq>
     <rdf:li>0, 0</rdf:li>
     <rdf:li>255, 255</rdf:li>
    </rdf:Seq>
   </crs:ToneCurvePV2012Green>
   <crs:ToneCurvePV2012Blue>
    <rdf:Seq>
     <rdf:li>0, 0</rdf:li>
     <rdf:li>255, 255</rdf:li>
    </rdf:Seq>
   </crs:ToneCurvePV2012Blue>
   <crs:PointColors>
    <rdf:Seq>
     <rdf:li>-1.000000, -1.000000, -1.000000, -1.000000, -1.000000, -1.000000, -1.000000, -1.000000, -1.000000, -1.000000, -1.000000, -1.000000, -1.000000, -1.000000, -1.000000, -1.000000, -1.000000, -1.000000, -1.000000</rdf:li>
    </rdf:Seq>
   </crs:PointColors>
   <crs:Look>
    <rdf:Description
     crs:Name="Adobe Landscape"
     crs:Amount="1"
     crs:UUID="6F9C877E84273F4E8271E6B91BEB36A1"
     crs:SupportsAmount="false"
     crs:SupportsMonochrome="false"
     crs:SupportsOutputReferred="false"
     crs:Copyright="© 2018 Adobe Systems, Inc.">
    <crs:Group>
     <rdf:Alt>
      <rdf:li xml:lang="x-default">Profiles</rdf:li>
     </rdf:Alt>
    </crs:Group>
    <crs:Parameters>
     <rdf:Description
      crs:Version="17.2"
      crs:ProcessVersion="15.4"
      crs:Highlights2012="-12"
      crs:Shadows2012="+12"
      crs:Clarity2012="+10"
      crs:ConvertToGrayscale="False"
      crs:CameraProfile="Adobe Standard"
      crs:LookTable="0B3BFB5CFB7DBF7FF175E98F24D316B0">
     <crs:ToneCurvePV2012>
      <rdf:Seq>
       <rdf:li>0, 0</rdf:li>
       <rdf:li>64, 60</rdf:li>
       <rdf:li>128, 128</rdf:li>
       <rdf:li>192, 196</rdf:li>
       <rdf:li>255, 255</rdf:li>
      </rdf:Seq>
     </crs:ToneCurvePV2012>
     </rdf:Description>
    </crs:Parameters>
    </rdf:Description>
   </crs:Look>
   <lr:weightedFlatSubject>
    <rdf:Bag>
     <rdf:li>Montenegró</rdf:li>
     <rdf:li>ország</rdf:li>
     <rdf:li>hely</rdf:li>
     <rdf:li>állat</rdf:li>
     <rdf:li>téma</rdf:li>
     <rdf:li>Durmitor</rdf:li>
     <rdf:li>tájnév</rdf:li>
    </rdf:Bag>
   </lr:weightedFlatSubject>
   <lr:hierarchicalSubject>
    <rdf:Bag>
     <rdf:li>hely|ország|Montenegró</rdf:li>
     <rdf:li>hely|tájnév|Durmitor</rdf:li>
     <rdf:li>téma|állat</rdf:li>
    </rdf:Bag>
   </lr:hierarchicalSubject>
  </rdf:Description>
 </rdf:RDF>
</x:xmpmeta>
