assets/images/fruskagora_torony.xmp
<x:xmpmeta xmlns:x="adobe:ns:meta/" x:xmptk="Adobe XMP Core 7.0-c000 1.000000, 0000/00/00-00:00:00        ">
 <rdf:RDF xmlns:rdf="http://www.w3.org/1999/02/22-rdf-syntax-ns#">
  <rdf:Description rdf:about=""
    xmlns:xmp="http://ns.adobe.com/xap/1.0/"
    xmlns:tiff="http://ns.adobe.com/tiff/1.0/"
    xmlns:exif="http://ns.adobe.com/exif/1.0/"
    xmlns:dc="http://purl.org/dc/elements/1.1/"
    xmlns:aux="http://ns.adobe.com/exif/1.0/aux/"
    xmlns:exifEX="http://cipa.jp/exif/1.0/"
    xmlns:photoshop="http://ns.adobe.com/photoshop/1.0/"
    xmlns:xmpMM="http://ns.adobe.com/xap/1.0/mm/"
    xmlns:stEvt="http://ns.adobe.com/xap/1.0/sType/ResourceEvent#"
    xmlns:xmpDM="http://ns.adobe.com/xmp/1.0/DynamicMedia/"
    xmlns:crs="http://ns.adobe.com/camera-raw-settings/1.0/"
    xmlns:lr="http://ns.adobe.com/lightroom/1.0/"
   xmp:ModifyDate="2020-06-27T15:35:48.40"
   xmp:CreateDate="2020-06-27T15:35:48.40"
   xmp:MetadataDate="2026-08-16T17:27:57+02:00"
   xmp:Label="Blue"
   tiff:Make="Canon"
   tiff:Model="Canon EOS 7D"
   tiff:Orientation="1"
   tiff:ImageWidth="5184"
   tiff:ImageLength="3456"
   exif:ExifVersion="0230"
   exif:ExposureTime="1/500"
   exif:ShutterSpeedValue="8965784/1000000"
   exif:FNumber="8/1"
   exif:ApertureValue="6/1"
   exif:ExposureProgram="3"
   exif:SensitivityType="2"
   exif:RecommendedExposureIndex="100"
   exif:ExposureBiasValue="-2/3"
   exif:MaxApertureValue="4375/1000"
   exif:MeteringMode="5"
   exif:FocalLength="34/1"
   exif:CustomRendered="0"
   exif:ExposureMode="0"
   exif:WhiteBalance="0"
   exif:SceneCaptureType="0"
   exif:FocalPlaneXResolution="5184000/907"
   exif:FocalPlaneYResolution="3456000/595"
   exif:FocalPlaneResolutionUnit="2"
   exif:DateTimeOriginal="2020-06-27T15:35:48.40"
   exif:PixelXDimension="5184"
   exif:PixelYDimension="3456"
   exif:GPSLatitude="45,8.8832780325N"
   exif:GPSLongitude="19,51.5955494185E"
   exif:GPSVersionID="2.2.0.0"
   exif:GPSAltitude="4905000/10000"
   dc:format="image/x-canon-cr2"
   aux:SerialNumber="1680803178"
   aux:LensInfo="18/1 55/1 0/0 0/0"
   aux:Lens="EF-S18-55mm f/3.5-5.6 IS II"
   aux:LensID="52"
   aux:ImageNumber="0"
   aux:ApproximateFocusDistance="4294967295/1"
   aux:FlashCompensation="0/1"
   aux:Firmware="2.0.5"
   exifEX:LensModel="EF-S18-55mm f/3.5-5.6 IS II"
   photoshop:DateCreated="2020-06-27T15:35:48.40"
   photoshop:SidecarForExtension="CR2"
   photoshop:EmbeddedXMPDigest="AD0ACF660F79AC49FD004B2DD3BC0461"
   xmpMM:DocumentID="F71D3B4E78CD865F94D6B1587DE87B94"
   xmpMM:PreservedFileName="img_0156.cr2"
   xmpMM:OriginalDocumentID="F71D3B4E78CD865F94D6B1587DE87B94"
   xmpMM:InstanceID="xmp.iid:3f38dc24-a5bd-e94f-b40a-dbb4154bbfd2"
   xmpDM:good="true"
   xmpDM:pick="1"
   crs:Version="17.2"
   crs:ProcessVersion="15.4"
   crs:WhiteBalance="Daylight"
   crs:Temperature="5500"
   crs:Tint="+10"
   crs:Exposure2012="+1.29"
   crs:Contrast2012="+39"
   crs:Highlights2012="-100"
   crs:Shadows2012="+76"
   crs:Whites2012="0"
   crs:Blacks2012="-35"
   crs:Texture="0"
   crs:Clarity2012="0"
   crs:Dehaze="0"
   crs:Vibrance="+11"
   crs:Saturation="-2"
   crs:ParametricShadows="0"
   crs:ParametricDarks="0"
   crs:ParametricLights="0"
   crs:ParametricHighlights="0"
   crs:ParametricShadowSplit="25"
   crs:ParametricMidtoneSplit="50"
   crs:ParametricHighlightSplit="75"
   crs:Sharpness="40"
   crs:SharpenRadius="+1.0"
   crs:SharpenDetail="25"
   crs:SharpenEdgeMasking="0"
   crs:LuminanceSmoothing="0"
   crs:ColorNoiseReduction="25"
   crs:ColorNoiseReductionDetail="50"
   crs:ColorNoiseReductionSmoothness="50"
   crs:HueAdjustmentRed="0"
   crs:HueAdjustmentOrange="0"
   crs:HueAdjustmentYellow="0"
   crs:HueAdjustmentGreen="0"
   crs:HueAdjustmentAqua="0"
   crs:HueAdjustmentBlue="0"
   crs:HueAdjustmentPurple="0"
   crs:HueAdjustmentMagenta="0"
   crs:SaturationAdjustmentRed="0"
   crs:SaturationAdjustmentOrange="0"
   crs:SaturationAdjustmentYellow="0"
   crs:SaturationAdjustmentGreen="0"
   crs:SaturationAdjustmentAqua="0"
   crs:SaturationAdjustmentBlue="0"
   crs:SaturationAdjustmentPurple="0"
   crs:SaturationAdjustmentMagenta="0"
   crs:LuminanceAdjustmentRed="0"
   crs:LuminanceAdjustmentOrange="0"
   crs:LuminanceAdjustmentYellow="0"
   crs:LuminanceAdjustmentGreen="0"
   crs:LuminanceAdjustmentAqua="0"
   crs:LuminanceAdjustmentBlue="0"
   crs:LuminanceAdjustmentPurple="0"
   crs:LuminanceAdjustmentMagenta="0"
   crs:SplitToningShadowHue="0"
   crs:SplitToningShadowSaturation="0"
   crs:SplitToningHighlightHue="0"
   crs:SplitToningHighlightSaturation="0"
   crs:SplitToningBalance="0"
   crs:ColorGradeMidtoneHue="0"
   crs:ColorGradeMidtoneSat="0"
   crs:ColorGradeShadowLum="0"
   crs:ColorGradeMidtoneLum="0"
   crs:ColorGradeHighlightLum="0"
   crs:ColorGradeBlending="50"
   crs:ColorGradeGlobalHue="0"
   crs:ColorGradeGlobalSat="0"
   crs:ColorGradeGlobalLum="0"
   crs:AutoLateralCA="1"
   crs:LensProfileEnable="1"
   crs:LensManualDistortionAmount="0"
   crs:VignetteAmount="0"
   crs:DefringePurpleAmount="0"
   crs:DefringePurpleHueLo="30"
   crs:DefringePurpleHueHi="70"
   crs:DefringeGreenAmount="0"
   crs:DefringeGreenHueLo="40"
   crs:DefringeGreenHueHi="60"
   crs:PerspectiveUpright="1"
   crs:PerspectiveVertical="0"
   crs:PerspectiveHorizontal="0"
   crs:PerspectiveRotate="0.0"
   crs:PerspectiveAspect="0"
   crs:PerspectiveScale="100"
   crs:PerspectiveX="0.00"
   crs:PerspectiveY="0.00"
   crs:GrainAmount="0"
   crs:PostCropVignetteAmount="0"
   crs:ShadowTint="0"
   crs:RedHue="0"
   crs:RedSaturation="0"
   crs:GreenHue="0"
   crs:GreenSaturation="0"
   crs:BlueHue="0"
   crs:BlueSaturation="0"
   crs:HDREditMode="0"
   crs:OverrideLookVignette="False"
   crs:ToneCurveName2012="Linear"
   crs:CameraProfile="Adobe Standard"
   crs:CameraProfileDigest="41F68367DA3B31B07AB631D81D0E942D"
   crs:LensProfileSetup="LensDefaults"
   crs:LensProfileName="Adobe (Canon EF-S 18-55mm f/3.5-5.6 IS II)"
   crs:LensProfileFilename="Canon EOS 50D (Canon EF-S 18-55mm f3.5-5.6 IS II) - RAW.lcp"
   crs:LensProfileDigest="DCD0C67967F80F728640FFA2A31FA08A"
   crs:LensProfileIsEmbedded="False"
   crs:LensProfileDistortionScale="100"
   crs:LensProfileVignettingScale="100"
   crs:UprightVersion="151388160"
   crs:UprightCenterMode="0"
   crs:UprightCenterNormX="0.5"
   crs:UprightCenterNormY="0.5"
   crs:UprightFocalMode="0"
   crs:UprightFocalLength35mm="53.2203"
   crs:UprightPreview="False"
   crs:UprightDependentDigest="339CC9F1E6B0B61B3E8D7BC9E9CC002C"
   crs:UprightTransformCount="6"
   crs:UprightTransform_0="1.000000000,0.000000000,0.000000000,0.000000000,1.000000000,0.000000000,0.000000000,0.000000000,1.000000000"
   crs:UprightTransform_1="1.135240525,-0.033801229,-0.018771440,0.100845220,1.093254480,-0.096220851,0.067461428,-0.005547900,1.000000000"
   crs:UprightTransform_2="1.060528653,-0.037058950,-0.015856307,0.071031056,1.053612421,-0.068212313,0.002642624,-0.012018082,1.000000000"
   crs:UprightTransform_3="1.061657411,-0.029987140,-0.015835135,0.067471063,1.061657411,-0.064564237,0.000000000,0.000000000,1.000000000"
   crs:UprightTransform_4="1.057839071,-0.036964412,-0.015862538,0.069796298,1.052285460,-0.067028532,0.000002549,-0.011925357,1.000000000"
   crs:UprightTransform_5="1.000000000,0.000000000,0.000000000,0.000000000,1.000000000,0.000000000,0.000000000,0.000000000,1.000000000"
   crs:AutoToneDigest="ED34FD36EE2A7D870EB26CCBE7DB0FCE"
   crs:AutoToneDigestNoSat="B7F5243B9A8BC2446BC5ACC635DA72F8"
   crs:HasSettings="True"
   crs:AlreadyApplied="False"
   crs:RawFileName="img_0156.cr2">
   <exif:ISOSpeedRatings>
    <rdf:Seq>
     <rdf:li>100</rdf:li>
    </rdf:Seq>
   </exif:ISOSpeedRatings>
   <exif:Flash
    exif:Fired="False"
    exif:Return="0"
    exif:Mode="2"
    exif:Function="False"
    exif:RedEyeMode="False"/>
   <dc:creator>
    <rdf:Seq>
     <rdf:li>Havassy Andras</rdf:li>
    </rdf:Seq>
   </dc:creator>
   <dc:title>
    <rdf:Alt>
     <rdf:li xml:lang="x-default">Iriški Venac-torony</rdf:li>
    </rdf:Alt>
   </dc:title>
   <dc:rights>
    <rdf:Alt>
     <rdf:li xml:lang="x-default">Havassy Andras</rdf:li>
    </rdf:Alt>
   </dc:rights>
   <dc:subject>
    <rdf:Bag>
     <rdf:li>Fruska gora</rdf:li>
     <rdf:li>Szerbia</rdf:li>
     <rdf:li>hely</rdf:li>
     <rdf:li>ország</rdf:li>
     <rdf:li>torony</rdf:li>
     <rdf:li>tájnév</rdf:li>
     <rdf:li>téma</rdf:li>
     <rdf:li>épített</rdf:li>
    </rdf:Bag>
   </dc:subject>
   <dc:description>
    <rdf:Alt>
     <rdf:li xml:lang="x-default">A túrát az Ürögi-hágóban kezdtük. A Tarcal-hegység jellegzetes látképi eleme a hágóban lévő torony, amit 1999-ben a NATO Jugoszlávia elleni légicsapásai során találat ért. Út közben felkerestük a Görgeteg- és a Staro Hopovo kolostort is. A harmadik napról nincs kép :(</rdf:li>
    </rdf:Alt>
   </dc:description>
   <xmpMM:History>
    <rdf:Seq>
     <rdf:li
      stEvt:action="saved"
      stEvt:instanceID="xmp.iid:3f38dc24-a5bd-e94f-b40a-dbb4154bbfd2"
      stEvt:when="2026-08-16T17:27:57+02:00"
      stEvt:softwareAgent="Adobe Photoshop Lightroom Classic 14.2 (Windows)"
      stEvt:changed="/metadata"/>
    </rdf:Seq>
   </xmpMM:History>
   <crs:ToneCurvePV2012>
    <rdf:Seq>
     <rdf:li>0, 0</rdf:li>
     <rdf:li>255, 255</rdf:li>
    </rdf:Seq>
   </crs:ToneCurvePV2012>
   <crs:ToneCurvePV2012Red>
    <rdf:Seq>
     <rdf:li>0, 0</rdf:li>
     <rdf:li>255, 255</rdf:li>
    </rdf:Seq>
   </crs:ToneCurvePV2012Red>
   <crs:ToneCurvePV2012Green>
    <rdf:Seq>
     <rdf:li>0, 0</rdf:li>
     <rdf:li>255, 255</rdf:li>
    </rdf:Seq>
   </crs:ToneCurvePV2012Green>
   <crs:ToneCurvePV2012Blue>
    <rdf:Seq>
     <rdf:li>0, 0</rdf:li>
     <rdf:li>255, 255</rdf:li>
    </rdf:Seq>
   </crs:ToneCurvePV2012Blue>
   <crs:PointColors>
    <rdf:Seq>
     <rdf:li>-1.000000, -1.000000, -1.000000, -1.000000, -1.000000, -1.000000, -1.000000, -1.000000, -1.000000, -1.000000, -1.000000, -1.000000, -1.000000, -1.000000, -1.000000, -1.000000, -1.000000, -1.000000, -1.000000</rdf:li>
    </rdf:Seq>
   </crs:PointColors>
   <crs:Look>
    <rdf:Description
     crs:Name="Adobe Landscape"
     crs:Amount="1"
     crs:UUID="6F9C877E84273F4E8271E6B91BEB36A1"
     crs:SupportsAmount="false"
     crs:SupportsMonochrome="false"
     crs:SupportsOutputReferred="false"
     crs:Copyright="© 2018 Adobe Systems, Inc.">
    <crs:Group>
     <rdf:Alt>
      <rdf:li xml:lang="x-default">Profiles</rdf:li>
     </rdf:Alt>
    </crs:Group>
    <crs:Parameters>
     <rdf:Description
      crs:Version="17.2"
      crs:ProcessVersion="15.4"
      crs:Highlights2012="-12"
      crs:Shadows2012="+12"
      crs:Clarity2012="+10"
      crs:ConvertToGrayscale="False"
      crs:CameraProfile="Adobe Standard"
      crs:LookTable="0B3BFB5CFB7DBF7FF175E98F24D316B0">
     <crs:ToneCurvePV2012>
      <rdf:Seq>
       <rdf:li>0, 0</rdf:li>
       <rdf:li>64, 60</rdf:li>
       <rdf:li>128, 128</rdf:li>
       <rdf:li>192, 196</rdf:li>
       <rdf:li>255, 255</rdf:li>
      </rdf:Seq>
     </crs:ToneCurvePV2012>
     </rdf:Description>
    </crs:Parameters>
    </rdf:Description>
   </crs:Look>
   <lr:weightedFlatSubject>
    <rdf:Bag>
     <rdf:li>Szerbia</rdf:li>
     <rdf:li>ország</rdf:li>
     <rdf:li>hely</rdf:li>
     <rdf:li>Fruska gora</rdf:li>
     <rdf:li>tájnév</rdf:li>
     <rdf:li>torony</rdf:li>
     <rdf:li>épített</rdf:li>
     <rdf:li>téma</rdf:li>
    </rdf:Bag>
   </lr:weightedFlatSubject>
   <lr:hierarchicalSubject>
    <rdf:Bag>
     <rdf:li>hely|ország|Szerbia</rdf:li>
     <rdf:li>hely|tájnév|Fruska gora</rdf:li>
     <rdf:li>téma|épített|torony</rdf:li>
    </rdf:Bag>
   </lr:hierarchicalSubject>
  </rdf:Description>
 </rdf:RDF>
</x:xmpmeta>
