assets/images/isztambul_camlica.xmp
<x:xmpmeta xmlns:x="adobe:ns:meta/" x:xmptk="Adobe XMP Core 7.0-c000 1.000000, 0000/00/00-00:00:00        ">
 <rdf:RDF xmlns:rdf="http://www.w3.org/1999/02/22-rdf-syntax-ns#">
  <rdf:Description rdf:about=""
    xmlns:xmp="http://ns.adobe.com/xap/1.0/"
    xmlns:tiff="http://ns.adobe.com/tiff/1.0/"
    xmlns:exif="http://ns.adobe.com/exif/1.0/"
    xmlns:dc="http://purl.org/dc/elements/1.1/"
    xmlns:aux="http://ns.adobe.com/exif/1.0/aux/"
    xmlns:photoshop="http://ns.adobe.com/photoshop/1.0/"
    xmlns:xmpMM="http://ns.adobe.com/xap/1.0/mm/"
    xmlns:stEvt="http://ns.adobe.com/xap/1.0/sType/ResourceEvent#"
    xmlns:crd="http://ns.adobe.com/camera-raw-defaults/1.0/"
    xmlns:xmpRights="http://ns.adobe.com/xap/1.0/rights/"
    xmlns:xmpDM="http://ns.adobe.com/xmp/1.0/DynamicMedia/"
    xmlns:crs="http://ns.adobe.com/camera-raw-settings/1.0/"
    xmlns:lr="http://ns.adobe.com/lightroom/1.0/"
   xmp:ModifyDate="2023-11-11T14:10:27.98"
   xmp:CreateDate="2023-11-11T14:10:27.98"
   xmp:Label="Red"
   xmp:MetadataDate="2026-08-16T21:37:46+02:00"
   tiff:Make="Canon"
   tiff:Model="Canon PowerShot G7 X Mark II"
   tiff:Orientation="1"
   tiff:ImageWidth="5472"
   tiff:ImageLength="3648"
   exif:ExifVersion="0230"
   exif:ExposureTime="1/1000"
   exif:ShutterSpeedValue="9965784/1000000"
   exif:FNumber="56/10"
   exif:ApertureValue="4970854/1000000"
   exif:ExposureProgram="3"
   exif:SensitivityType="2"
   exif:RecommendedExposureIndex="250"
   exif:ExposureBiasValue="-1/3"
   exif:MaxApertureValue="95/32"
   exif:MeteringMode="5"
   exif:FocalLength="28343/1000"
   exif:SensingMethod="2"
   exif:FileSource="3"
   exif:CustomRendered="0"
   exif:ExposureMode="1"
   exif:WhiteBalance="1"
   exif:SceneCaptureType="0"
   exif:DigitalZoomRatio="5472/5472"
   exif:FocalPlaneXResolution="135838255/32768"
   exif:FocalPlaneYResolution="135838255/32768"
   exif:FocalPlaneResolutionUnit="3"
   exif:DateTimeOriginal="2023-11-11T14:10:27.98"
   exif:PixelXDimension="5472"
   exif:PixelYDimension="3648"
   dc:format="image/x-canon-cr2"
   aux:SerialNumber="873056001511"
   aux:LensInfo="8800/1000 36800/1000 0/0 0/0"
   aux:Lens="8.8-36.8 mm"
   aux:ImageNumber="0"
   aux:ApproximateFocusDistance="4294967295/1"
   aux:FlashCompensation="0/1"
   aux:Firmware="1.01"
   photoshop:DateCreated="2023-11-11T14:10:27.98"
   photoshop:SidecarForExtension="CR2"
   photoshop:EmbeddedXMPDigest="EB127DA8AB7093AF20433136B4F6595B"
   xmpMM:DocumentID="C77EA6994A228B801982CC5D9F43506E"
   xmpMM:PreservedFileName="img_0015.cr2"
   xmpMM:OriginalDocumentID="C77EA6994A228B801982CC5D9F43506E"
   xmpMM:InstanceID="xmp.iid:94c6a9e3-2d63-7b4d-8e6e-6546270397e4"
   crd:CameraProfile="Camera Auto"
   crd:LookName=""
   xmpRights:Marked="True"
   xmpDM:pick="0"
   crs:Version="17.2"
   crs:CompatibleVersion="234881024"
   crs:ProcessVersion="15.4"
   crs:WhiteBalance="As Shot"
   crs:Temperature="5450"
   crs:Tint="+5"
   crs:Exposure2012="+1.26"
   crs:Contrast2012="+25"
   crs:Highlights2012="-100"
   crs:Shadows2012="+42"
   crs:Whites2012="+50"
   crs:Blacks2012="-31"
   crs:Texture="0"
   crs:Clarity2012="0"
   crs:Dehaze="0"
   crs:Vibrance="+12"
   crs:Saturation="-1"
   crs:ParametricShadows="0"
   crs:ParametricDarks="0"
   crs:ParametricLights="0"
   crs:ParametricHighlights="0"
   crs:ParametricShadowSplit="25"
   crs:ParametricMidtoneSplit="50"
   crs:ParametricHighlightSplit="75"
   crs:Sharpness="40"
   crs:SharpenRadius="+1.0"
   crs:SharpenDetail="25"
   crs:SharpenEdgeMasking="0"
   crs:LuminanceSmoothing="0"
   crs:ColorNoiseReduction="25"
   crs:ColorNoiseReductionDetail="50"
   crs:ColorNoiseReductionSmoothness="50"
   crs:HueAdjustmentRed="0"
   crs:HueAdjustmentOrange="0"
   crs:HueAdjustmentYellow="0"
   crs:HueAdjustmentGreen="0"
   crs:HueAdjustmentAqua="0"
   crs:HueAdjustmentBlue="0"
   crs:HueAdjustmentPurple="0"
   crs:HueAdjustmentMagenta="0"
   crs:SaturationAdjustmentRed="0"
   crs:SaturationAdjustmentOrange="0"
   crs:SaturationAdjustmentYellow="0"
   crs:SaturationAdjustmentGreen="0"
   crs:SaturationAdjustmentAqua="0"
   crs:SaturationAdjustmentBlue="0"
   crs:SaturationAdjustmentPurple="0"
   crs:SaturationAdjustmentMagenta="0"
   crs:LuminanceAdjustmentRed="0"
   crs:LuminanceAdjustmentOrange="0"
   crs:LuminanceAdjustmentYellow="0"
   crs:LuminanceAdjustmentGreen="0"
   crs:LuminanceAdjustmentAqua="0"
   crs:LuminanceAdjustmentBlue="0"
   crs:LuminanceAdjustmentPurple="0"
   crs:LuminanceAdjustmentMagenta="0"
   crs:SplitToningShadowHue="0"
   crs:SplitToningShadowSaturation="0"
   crs:SplitToningHighlightHue="0"
   crs:SplitToningHighlightSaturation="0"
   crs:SplitToningBalance="0"
   crs:ColorGradeMidtoneHue="0"
   crs:ColorGradeMidtoneSat="0"
   crs:ColorGradeShadowLum="0"
   crs:ColorGradeMidtoneLum="0"
   crs:ColorGradeHighlightLum="0"
   crs:ColorGradeBlending="50"
   crs:ColorGradeGlobalHue="0"
   crs:ColorGradeGlobalSat="0"
   crs:ColorGradeGlobalLum="0"
   crs:AutoLateralCA="0"
   crs:LensProfileEnable="0"
   crs:LensManualDistortionAmount="0"
   crs:VignetteAmount="0"
   crs:DefringePurpleAmount="0"
   crs:DefringePurpleHueLo="30"
   crs:DefringePurpleHueHi="70"
   crs:DefringeGreenAmount="0"
   crs:DefringeGreenHueLo="40"
   crs:DefringeGreenHueHi="60"
   crs:PerspectiveUpright="0"
   crs:PerspectiveVertical="0"
   crs:PerspectiveHorizontal="0"
   crs:PerspectiveRotate="0.0"
   crs:PerspectiveAspect="0"
   crs:PerspectiveScale="100"
   crs:PerspectiveX="0.00"
   crs:PerspectiveY="0.00"
   crs:GrainAmount="0"
   crs:PostCropVignetteAmount="0"
   crs:ShadowTint="0"
   crs:RedHue="0"
   crs:RedSaturation="0"
   crs:GreenHue="0"
   crs:GreenSaturation="0"
   crs:BlueHue="0"
   crs:BlueSaturation="0"
   crs:HDREditMode="0"
   crs:OverrideLookVignette="False"
   crs:ToneCurveName2012="Linear"
   crs:CameraProfile="Adobe Standard"
   crs:CameraProfileDigest="1E4F81470A6232BAF5C2806953239317"
   crs:UprightVersion="151388160"
   crs:UprightCenterMode="0"
   crs:UprightCenterNormX="0.5"
   crs:UprightCenterNormY="0.5"
   crs:UprightFocalMode="0"
   crs:UprightFocalLength35mm="76.8841"
   crs:UprightPreview="False"
   crs:UprightDependentDigest="F7173540FD9FB419BD947A976070F4D2"
   crs:UprightTransformCount="6"
   crs:UprightTransform_0="1.000000000,0.000000000,0.000000000,0.000000000,1.000000000,0.000000000,0.000000000,0.000000000,1.000000000"
   crs:UprightTransform_1="1.013502339,-0.005959465,-0.003757425,0.013425131,1.013188650,-0.013301118,0.000019299,0.000009576,1.000000000"
   crs:UprightTransform_2="1.240628565,-0.009247513,-0.045757053,0.085644140,1.128305199,-0.080961967,0.134366553,-0.000825658,1.000000000"
   crs:UprightTransform_3="1.013168535,-0.005962345,-0.003603095,0.013415276,1.013168536,-0.013291906,0.000000000,0.000000000,1.000000000"
   crs:UprightTransform_4="1.016924649,-0.007574287,-0.004592148,0.017243033,1.017008278,-0.017037629,0.000008044,0.000174968,1.000000000"
   crs:UprightTransform_5="1.000000000,0.000000000,0.000000000,0.000000000,1.000000000,0.000000000,0.000000000,0.000000000,1.000000000"
   crs:AutoToneDigest="0D00D0B9470B2E54B783EB2BFD69B1CD"
   crs:AutoToneDigestNoSat="61A11C0643F7234D54882D0FD7E5102C"
   crs:HasSettings="True"
   crs:CropTop="0.10981"
   crs:CropLeft="0.000576"
   crs:CropBottom="0.951155"
   crs:CropRight="0.997726"
   crs:CropAngle="0"
   crs:CropConstrainToWarp="0"
   crs:HasCrop="True"
   crs:AlreadyApplied="False"
   crs:RawFileName="img_0015.cr2">
   <exif:ISOSpeedRatings>
    <rdf:Seq>
     <rdf:li>250</rdf:li>
    </rdf:Seq>
   </exif:ISOSpeedRatings>
   <exif:Flash
    exif:Fired="False"
    exif:Return="0"
    exif:Mode="2"
    exif:Function="False"
    exif:RedEyeMode="False"/>
   <dc:creator>
    <rdf:Seq>
     <rdf:li>Havassy Andras</rdf:li>
    </rdf:Seq>
   </dc:creator>
   <dc:title>
    <rdf:Alt>
     <rdf:li xml:lang="x-default">A Camlica-torony Isztambul ázsiai oldalán</rdf:li>
    </rdf:Alt>
   </dc:title>
   <dc:rights>
    <rdf:Alt>
     <rdf:li xml:lang="x-default">Havassy Andras</rdf:li>
    </rdf:Alt>
   </dc:rights>
   <dc:subject>
    <rdf:Bag>
     <rdf:li>Boszporusz</rdf:li>
     <rdf:li>Isztambul</rdf:li>
     <rdf:li>Törökország</rdf:li>
     <rdf:li>hely</rdf:li>
     <rdf:li>ország</rdf:li>
     <rdf:li>település</rdf:li>
     <rdf:li>tenger</rdf:li>
     <rdf:li>táj</rdf:li>
     <rdf:li>tájnév</rdf:li>
     <rdf:li>téma</rdf:li>
    </rdf:Bag>
   </dc:subject>
   <dc:description>
    <rdf:Alt>
     <rdf:li xml:lang="x-default">Ezen a napon nem volt iskolai program, egyik vendéglátónkkal reggeliztünk, aki utána elvitt minket egy nagyobb városnézésre, a város ázsiai részrée. Hazafelé egy újabb - ezúttal viharos hajóutat tettünk a Boszporuszon, sőt, szigorúan véve ez már a Márvány-tenger.</rdf:li>
    </rdf:Alt>
   </dc:description>
   <xmpMM:History>
    <rdf:Seq>
     <rdf:li
      stEvt:action="saved"
      stEvt:instanceID="xmp.iid:94c6a9e3-2d63-7b4d-8e6e-6546270397e4"
      stEvt:when="2026-08-16T21:37:46+02:00"
      stEvt:softwareAgent="Adobe Photoshop Lightroom Classic 14.2 (Windows)"
      stEvt:changed="/metadata"/>
    </rdf:Seq>
   </xmpMM:History>
   <crs:ToneCurvePV2012>
    <rdf:Seq>
     <rdf:li>0, 0</rdf:li>
     <rdf:li>255, 255</rdf:li>
    </rdf:Seq>
   </crs:ToneCurvePV2012>
   <crs:ToneCurvePV2012Red>
    <rdf:Seq>
     <rdf:li>0, 0</rdf:li>
     <rdf:li>255, 255</rdf:li>
    </rdf:Seq>
   </crs:ToneCurvePV2012Red>
   <crs:ToneCurvePV2012Green>
    <rdf:Seq>
     <rdf:li>0, 0</rdf:li>
     <rdf:li>255, 255</rdf:li>
    </rdf:Seq>
   </crs:ToneCurvePV2012Green>
   <crs:ToneCurvePV2012Blue>
    <rdf:Seq>
     <rdf:li>0, 0</rdf:li>
     <rdf:li>255, 255</rdf:li>
    </rdf:Seq>
   </crs:ToneCurvePV2012Blue>
   <crs:PointColors>
    <rdf:Seq>
     <rdf:li>-1.000000, -1.000000, -1.000000, -1.000000, -1.000000, -1.000000, -1.000000, -1.000000, -1.000000, -1.000000, -1.000000, -1.000000, -1.000000, -1.000000, -1.000000, -1.000000, -1.000000, -1.000000, -1.000000</rdf:li>
    </rdf:Seq>
   </crs:PointColors>
   <crs:MaskGroupBasedCorrections>
    <rdf:Seq>
     <rdf:li>
      <rdf:Description
       crs:What="Correction"
       crs:CorrectionAmount="1"
       crs:CorrectionActive="true"
       crs:CorrectionName="Mask 1"
       crs:CorrectionSyncID="EF151F44603F2612CAB2EB36427EE505"
       crs:LocalExposure="0"
       crs:LocalHue="0"
       crs:LocalSaturation="0"
       crs:LocalContrast="0"
       crs:LocalClarity="0"
       crs:LocalSharpness="0"
       crs:LocalBrightness="0"
       crs:LocalToningHue="0"
       crs:LocalToningSaturation="0"
       crs:LocalExposure2012="-0.22125"
       crs:LocalContrast2012="0.32731"
       crs:LocalHighlights2012="0"
       crs:LocalShadows2012="0"
       crs:LocalWhites2012="0"
       crs:LocalBlacks2012="0"
       crs:LocalClarity2012="0"
       crs:LocalDehaze="0"
       crs:LocalLuminanceNoise="0"
       crs:LocalMoire="0"
       crs:LocalDefringe="0"
       crs:LocalTemperature="0.03"
       crs:LocalTint="0"
       crs:LocalTexture="0"
       crs:LocalCurveRefineSaturation="100">
      <crs:CorrectionMasks>
       <rdf:Seq>
        <rdf:li
         crs:What="Mask/Gradient"
         crs:MaskActive="true"
         crs:MaskName="Linear Gradient 1"
         crs:MaskBlendMode="0"
         crs:MaskInverted="false"
         crs:MaskSyncID="B59F93A47EF5754B8E9001BEDDDB534C"
         crs:MaskValue="1"
         crs:ZeroX="0.327581"
         crs:ZeroY="1.04558"
         crs:FullX="0.293685"
         crs:FullY="0.196387"/>
       </rdf:Seq>
      </crs:CorrectionMasks>
      <crs:CorrectionRangeMask
       crs:Version="2"
       crs:Type="0"
       crs:ColorAmount="0.5"
       crs:LumMin="0"
       crs:LumMax="1"
       crs:LumFeather="0.5"
       crs:DepthMin="0"
       crs:DepthMax="1"
       crs:DepthFeather="0.5"/>
      </rdf:Description>
     </rdf:li>
    </rdf:Seq>
   </crs:MaskGroupBasedCorrections>
   <crs:Look>
    <rdf:Description
     crs:Name="Adobe Landscape"
     crs:Amount="1"
     crs:UUID="6F9C877E84273F4E8271E6B91BEB36A1"
     crs:SupportsAmount="false"
     crs:SupportsMonochrome="false"
     crs:SupportsOutputReferred="false"
     crs:Copyright="© 2018 Adobe Systems, Inc.">
    <crs:Group>
     <rdf:Alt>
      <rdf:li xml:lang="x-default">Profiles</rdf:li>
     </rdf:Alt>
    </crs:Group>
    <crs:Parameters>
     <rdf:Description
      crs:Version="17.2"
      crs:ProcessVersion="15.4"
      crs:Highlights2012="-12"
      crs:Shadows2012="+12"
      crs:Clarity2012="+10"
      crs:ConvertToGrayscale="False"
      crs:CameraProfile="Adobe Standard"
      crs:LookTable="0B3BFB5CFB7DBF7FF175E98F24D316B0">
     <crs:ToneCurvePV2012>
      <rdf:Seq>
       <rdf:li>0, 0</rdf:li>
       <rdf:li>64, 60</rdf:li>
       <rdf:li>128, 128</rdf:li>
       <rdf:li>192, 196</rdf:li>
       <rdf:li>255, 255</rdf:li>
      </rdf:Seq>
     </crs:ToneCurvePV2012>
     </rdf:Description>
    </crs:Parameters>
    </rdf:Description>
   </crs:Look>
   <lr:weightedFlatSubject>
    <rdf:Bag>
     <rdf:li>Törökország</rdf:li>
     <rdf:li>ország</rdf:li>
     <rdf:li>hely</rdf:li>
     <rdf:li>Isztambul</rdf:li>
     <rdf:li>település</rdf:li>
     <rdf:li>tenger</rdf:li>
     <rdf:li>táj</rdf:li>
     <rdf:li>téma</rdf:li>
     <rdf:li>Boszporusz</rdf:li>
     <rdf:li>tájnév</rdf:li>
    </rdf:Bag>
   </lr:weightedFlatSubject>
   <lr:hierarchicalSubject>
    <rdf:Bag>
     <rdf:li>hely|ország|Törökország</rdf:li>
     <rdf:li>hely|település|Isztambul</rdf:li>
     <rdf:li>hely|tájnév|Boszporusz</rdf:li>
     <rdf:li>téma|táj|tenger</rdf:li>
    </rdf:Bag>
   </lr:hierarchicalSubject>
  </rdf:Description>
 </rdf:RDF>
</x:xmpmeta>
